X:1
T:When Winds Are Raging
T:Charles Beecher, 1855
T:When Winds Are Raging
T:Public Domain
T:Public Domain
C:Charles Beecher, 1855
Z:Public Domain
%%score ( 1 2 ) ( 3 4 )
L:1/8
M:2/2
K:G
V:1 treble 
V:2 treble 
V:3 bass 
V:4 bass 
V:1
 D2 | [DG]4 [DA]4 | [DB]2 [DA]2 [EA]2 [EB]2 | (E2 F2) [GB]4 | [GB]4 [FA]2 [GB]2 | %5
w: 1.~When|are rag-|ing o’er the up-|per * o-|And bil- lows|
w: 2.~Far,|be- neath,|the noise of tem-|pests * di-|And sil- ver|
w: 3.~So|the heart|that knows Thy love,|O * Pur-|There is a|
w: 4.~Far,|a- way,|the roar of pass-|ion * di-|And lov- ing|
w: 5.~O|of rests!|O Peace, se- rene,|e- * ter-|Thou ev- er|
 [Bd]2 [GB]2 D2 [Bd]2 | [Ac]2 [FA]2 D2 [Ac]2 | ([GB]4 [FA]2) [Dd]2 | D3 D D2 D2 | %9
w: wild con- tend with|ry roar, ’Tis said,|down, * be-|low the wild com-|
w: waves chime ev- er|ful- ly, And no|storm, * how|fierce so e’er it|
w: tem- ple, sac- red|er- more, And all|bab- * ble|of life’s ang- ry|
w: thoughts rise calm and|ful- ly, And no|storm, * how|fierce so e’er it|
w: liv- est, and Thou|est never. And in|sec- * ret|of Thy pre- sence|
 [A,E]2 [DF]2 [DG]2 [DA]2 | [Dc]4 [DB]2 [GB]2 | [GB]2 [GB]2 [Gd]2 [DB]2 | [DB]3 [DA] [DG]2 [DA]2 | %13
w: ful stil- lness reign-|eth ev- er-|more. * * *||
w: the Sab- bath of|that deep- er|sea. * * *||
w: hushed still- ness at|its peace- ful|door. * * *||
w: the soul that dwells,|O Lord, in|Thee. * * *||
w: of joy, for- ev-|er and for-|e’er. * * *||
 [DG]6 |] %14
w: |
w: |
w: |
w: |
w: |
V:2
 D2 | x8 | x8 | c4 x4 | x8 | x4 D2 x2 | x4 D2 x2 | x8 | D3 D D2 D2 | x8 | x8 | x8 | x8 | x6 |] %14
w: winds|||cean,||ang-|far||mo- tion, That peace-||||||
w: far|||eth,||peace-|rude||fli- eth, Dis- turbs||||||
w: to|||est!||ev-|the||voic- es Dies in||||||
w: far|||eth,||peace-|rude||fli- eth, Dis- turbs||||||
w: Rest|||nal!||chang-|the||dwell- eth Full- ness||||||
V:3
 [G,B,]2 | [G,B,]4 [G,C]4 | [G,D]2 [G,B,]2 [C,A,]2 [B,,^G,]2 | (A,2 D2) (G,,2 B,,2) | %4
 [D,D]4 [D,D]2 D,2 | D,2 D,2 D,2 D,2 | D,2 D,2 D,2 D,2 | D,6 [D,D]2 | D,3 D, D,2 D,2 | %9
 [^C,A,]2 [=C,A,]2 [B,,G,]2 [A,,F,]2 | [G,,A,]4 [G,,G,]2 [G,D]2 | [G,D]2 [G,D]2 [B,D]2 [G,D]2 | %12
 [D,D]3 [D,C] [D,B,]2 [D,C]2 | [G,,B,]6 |] %14
V:4
 x2 | x8 | x8 | A,,4 D4 | x6 D,2 | D,2 D,2 D,2 D,2 | D,2 D,2 D,2 D,2 | D,6 x2 | D,3 D, D,2 D,2 | %9
 x8 | x8 | x8 | x8 | x6 |] %14

